X:122
T:Ookpik Waltz
C:Frankie Rodgers (Altan)
M:3/4
L:1/8
Q:108
R:Waltz
K:G
|:D E>F|!segno!"G"G3 A B>d|"D"A F3 (3DED|"C"EG- G3 A|"G"G3 A B>d|"Em"e4 e>f|"C"ed3 B>A|"G"B d3e2|d2 g2f2|!
"Em"e4 e>f|"C"e d3 (3 dBA|"G"B3 d (3BAG|"Em"E4 E>D|"C"C3 D EG|"D"D F3 D2|"C"E2 G3A|1 !fine!"G"G3:|2 G3 AB>d|!
"Em"e2 B3 A|B4 e2|"Bm"d2 B3 A|B4 B2|"Am"A4 A>B|A G3 (3GED|"C"EG-G3 A|"G"G2 B2 d2|!
"Em"e2 B3A|B4 e2|"Bm"d2 B3 A|B4 B2|"Am"A4 A>B|A G3 (3GED|"C"EG-G3 E|"D" FE D2 (3DEF !D.S.!|!
P:AABABA

